X:249
T:Will You Come Home with Me?
T:Tiocfaidh t\'u abhaile liom?
R:jig
Z:id:hn-jig-249
M:6/8
K:G
dge fdc|BdB cAF|~G3 AcA|~G3 ABc|
dge fdc|BdB cAF|~G3 AcA|~G3 GBc:|
|:d2B c2A|BdB cAF|~G3 AcA|~G3 ABc|
d2B c2A|BdB cAF|~G3 AcA|GAG GBc:|

